FINK
CUT[FROEHLICH TOENT DER BECHERKLANG]
REG[Europa, Mitteleuropa, Deutschland]
KEY[F0511  08  C 4/4]
MEL[  -5_-3-51_31  -5_-5_-5_0_
    1_.-7-6-5-4-3  -3__-2_0_
    -5_-3-51_31  -5_-5_-5_0_
    1_.-7-6-5-4-3  -3__-2_0_
    -7_2_2_2_  2_.1-7_0_
    -5_2_2_2_  2_.1-7_0_
    4_.43_54  3__2_0_
    1_-5_-3_-5_  1_2_3_0_
    2_.35432  1_-7_1_0_
    1_-5_-3_-5_  1_2_3_0_
    2_.35432  1_-7_1_0_ //] >>
FCT[Studenten -, Trink - Lied]
